src/Icons/stroked/svg/pinned.svg

<?xml version="1.0" encoding="UTF-8"?>
<svg width="24px" height="24px" viewBox="0 0 24 24" version="1.1" xmlns="http://www.w3.org/2000/svg" xmlns:xlink="http://www.w3.org/1999/xlink">
    <title>5693D753-112A-4B5D-AC07-B9FE0259C5A1</title>
    <g id="Export-Set" stroke="none" stroke-width="1" fill="none" fill-rule="evenodd" stroke-linecap="round" stroke-linejoin="round">
        <g id="Icon-Export-Set" transform="translate(-492.000000, -330.000000)" stroke="#000000" stroke-width="1.5">
            <g id="_Master/Icon/Global/Pinned" transform="translate(492.000000, 330.000000)">
                <path d="M4.949,8.783 C4.54803594,9.01825415 4.27881068,9.42612477 4.22008913,9.88728469 C4.16136758,10.3484446 4.319787,10.8107691 4.649,11.139 L12.862,19.352 C13.1902309,19.681213 13.6525554,19.8396324 14.1137153,19.7809109 C14.5748752,19.7221893 14.9827458,19.4529641 15.218,19.052 C16.1908167,17.378361 16.4809346,15.3940973 16.028,13.512 L22.557,9.357 C22.9408892,9.11283731 23.1932174,8.7076392 23.2429896,8.25541244 C23.2927618,7.80318568 23.1345982,7.35280877 22.813,7.031 L16.97,1.188 C16.6483308,0.866305426 16.1980495,0.707975284 15.745832,0.757552004 C15.2936146,0.807128724 14.8883316,1.0592546 14.644,1.443 L10.489,7.973 C8.60690274,7.52006537 6.62263904,7.81018334 4.949,8.783 Z" id="Path"></path>
                <line x1="8.753" y1="15.246" x2="0.75" y2="23.249" id="Path"></line>
            </g>
        </g>
    </g>
</svg>

<svg xmlns="http://www.w3.org/2000/svg" width="24" height="24" viewBox="0 0 24 24">
    <g fill="none" fill-rule="evenodd" stroke="#000" stroke-linecap="round" stroke-linejoin="round" stroke-width="1.5">
        <path d="M4.949 8.783c-.401.235-.67.643-.729 1.104-.059.461.1.924.429 1.252l8.213 8.213c.328.33.79.488 1.252.429.46-.059.869-.328 1.104-.729.973-1.674 1.263-3.658.81-5.54l6.529-4.155c.384-.244.636-.65.686-1.102.05-.452-.108-.902-.43-1.224L16.97 1.188c-.322-.322-.772-.48-1.224-.43-.452.05-.858.301-1.102.685l-4.155 6.53c-1.882-.453-3.866-.163-5.54.81zM8.753 15.246L.75 23.249"/>
    </g>
</svg>
